X:1
T: Nightingale
N:
C:
S: Play  3  times
A:
O:
R:
M:4/4
K:C
I:speed 200
%W: A1
% voice 1 (1 lines, 30 notes)
K:C
M:4/4
L:1/16
d4 |e6 d e c4 g2 f2 |e12 c2 d2 |e4 c4 e4 f4 |g12 e2 f2 |g4 g2 a2 g4 e2 f2 |g2 f2 g2 a2 g4 e2 f2 |
%W:
% voice 1 (1 lines, 29 notes)
g4 e4 f4 g4 |a4 A2 A2 A6 B2 |c2 d2 e2 f2 g4 c4 |B3 c d4 G4 g2 f2 |e2 f2 g2 e2 d6 c2 |c12 d4 |
%W: A2
% voice 1 (1 lines, 29 notes)
e6 d e c4 g2 f2 |e12 c2 d2 |e4 c4 e4 f4 |g12 e2 f2 |g4 g2 a2 g4 e2 f2 |g2 f2 g2 a2 g4 e2 f2 |
%W:
% voice 1 (1 lines, 30 notes)
g4 e4 f4 g4 |a4 A2 A2 A6 B2 |c2 d2 e2 f2 g4 c4 |B3 c d4 G4 g2 f2 |e2 f2 g2 e2 d6 c2 |c12 f2 g2 |
%W: B1
% voice 1 (1 lines, 46 notes)
a4 f4 f6 g2 |a2 f2 f2 e2 f6 g2 |a2 f2 a2 f2 a2 f2 a2 f2 |a2 f2 a2 f2 e4e2 g4 |g4 g4 g4 g8 |g2 g2 g2 g2 g2 g2 g2 g2 |g2 g2 f2 e2 d6 c2 |c4 f2 g2
%W: B2
% voice 1 (1 lines, 44 notes)
a4 f4 |f6 g2 a2 f2 f2 e2 |f6 g2 a2 f2 a2 f2 |a2 f2 a2 f2 a2 f2 a2 f2 |e4e2 g4 g4 g4 |g4 g8 g2 g2 |g2 g2 g2 g2 g2 g2 g2 g2 |f2 e2 d6 c2 c4 |||

